X: 84
T: Song Received from a Dead Relative
N: Derived from pawnee84.krn
O: Oklahoma, U.S.A.
N: from Pawnee Music by Frances Densmore, 1926
Z: transcribed to **kern format by David Huron, August 2000
C: Skidi and Chaui Bands, 1919
L: 1/8
M: 2/4
Q: 1/4=88
K: Eb clef=bass
%%linebreak <none>
F2F3/ _E/ | 
_E2E3/ G/ | 
F2F3/ _E/ | 
_E> F D3/ F/ | 
_B,2B,3/ B,/ | 
_B,2B,3/ _E/ | 
C2C3/ C/ | 
_B,2B,3/ _E/ | 
G,2G,3/ _E,/ | 
_E,2E,3/ _B,/ | 
G,2G,3/ G,/ | 
F, G, _E,3/ G,/ | 
_B,,2B,,3/ B,,/ | 
_B,,2B,,3/ _E,/ | 
_E,2E,3/ _B,,/ | 
_B,,2B,,3/ B,,/ | 
_B,,7/ |]  



